symbols/web/bike_scooter/materialsymbolsoutlined/bike_scooter_wght600gradN25_40px.svg

<svg xmlns="http://www.w3.org/2000/svg" height="40" width="40"><path d="M.208 31.75v-2.917h6.667q.292-2.958 2.354-5.25 2.063-2.291 4.938-2.875L11.875 10.25H5.417V7.292h6.125q1.166 0 2.083.646.917.645 1.167 1.812l2.958 13.583h-1.125q-2.833 0-4.833 2t-2 4.875v1.542Zm16.459 3.167q-2 0-3.375-1.375t-1.375-3.334q0-2 1.375-3.375t3.375-1.375q2 0 3.375 1.375t1.375 3.375q0 2-1.375 3.354-1.375 1.355-3.375 1.355Zm0-2.917q.75 0 1.271-.542.52-.541.52-1.25 0-.75-.52-1.27-.521-.521-1.271-.521-.75 0-1.271.521-.521.52-.521 1.27t.521 1.271q.521.521 1.271.521Zm15.041-2.042q-2.958 0-5.25-1.833-2.291-1.833-2.833-4.667h-3.667L19.5 20.5h4.125q.208-1.042.667-2.042.458-1 1.208-1.708h-6.958l-.667-2.917H27l-2-5.916h-4.167V4.958h3.917q1 0 1.833.542.834.542 1.167 1.458l2.375 6.75h1.583q3.375 0 5.73 2.354 2.354 2.355 2.354 5.73 0 3.375-2.354 5.77-2.355 2.396-5.73 2.396Zm0-2.875q2.167 0 3.646-1.521 1.479-1.52 1.479-3.687 0-2.125-1.458-3.583-1.458-1.459-3.458-1.5h-.667l1.667 4.5-2.75 1-1.667-4.459q-.958.667-1.458 1.771-.5 1.104-.5 2.271 0 2.167 1.5 3.687 1.5 1.521 3.666 1.521Zm-15.041 3.125Zm15-8.25Z"/></svg>

<svg xmlns="http://www.w3.org/2000/svg" height="40" width="40"><path d="M0.208 31.75V28.833H6.875Q7.167 25.875 9.229 23.583Q11.292 21.292 14.167 20.708L11.875 10.25Q11.875 10.25 11.875 10.25Q11.875 10.25 11.875 10.25H5.417V7.292H11.542Q12.708 7.292 13.625 7.938Q14.542 8.583 14.792 9.75L17.75 23.333H16.625Q13.792 23.333 11.792 25.333Q9.792 27.333 9.792 30.208V31.75ZM16.667 34.917Q14.667 34.917 13.292 33.542Q11.917 32.167 11.917 30.208Q11.917 28.208 13.292 26.833Q14.667 25.458 16.667 25.458Q18.667 25.458 20.042 26.833Q21.417 28.208 21.417 30.208Q21.417 32.208 20.042 33.562Q18.667 34.917 16.667 34.917ZM16.667 32Q17.417 32 17.938 31.458Q18.458 30.917 18.458 30.208Q18.458 29.458 17.938 28.938Q17.417 28.417 16.667 28.417Q15.917 28.417 15.396 28.938Q14.875 29.458 14.875 30.208Q14.875 30.958 15.396 31.479Q15.917 32 16.667 32ZM31.708 29.958Q28.75 29.958 26.458 28.125Q24.167 26.292 23.625 23.458H19.958L19.5 20.5H23.625Q23.833 19.458 24.292 18.458Q24.75 17.458 25.5 16.75H18.542L17.875 13.833H27L25 7.917Q25 7.917 25 7.917Q25 7.917 25 7.917H20.833V4.958H24.75Q25.75 4.958 26.583 5.5Q27.417 6.042 27.75 6.958L30.125 13.708H31.708Q35.083 13.708 37.438 16.062Q39.792 18.417 39.792 21.792Q39.792 25.167 37.438 27.562Q35.083 29.958 31.708 29.958ZM31.708 27.083Q33.875 27.083 35.354 25.562Q36.833 24.042 36.833 21.875Q36.833 19.75 35.375 18.292Q33.917 16.833 31.917 16.792Q31.75 16.792 31.583 16.792Q31.417 16.792 31.25 16.792L32.917 21.292L30.167 22.292L28.5 17.833Q27.542 18.5 27.042 19.604Q26.542 20.708 26.542 21.875Q26.542 24.042 28.042 25.562Q29.542 27.083 31.708 27.083ZM16.667 30.208Q16.667 30.208 16.667 30.208Q16.667 30.208 16.667 30.208Q16.667 30.208 16.667 30.208Q16.667 30.208 16.667 30.208Q16.667 30.208 16.667 30.208Q16.667 30.208 16.667 30.208Q16.667 30.208 16.667 30.208Q16.667 30.208 16.667 30.208ZM31.667 21.958Q31.667 21.958 31.667 21.958Q31.667 21.958 31.667 21.958Q31.667 21.958 31.667 21.958Q31.667 21.958 31.667 21.958Q31.667 21.958 31.667 21.958Q31.667 21.958 31.667 21.958Q31.667 21.958 31.667 21.958Q31.667 21.958 31.667 21.958Q31.667 21.958 31.667 21.958Q31.667 21.958 31.667 21.958Z"/></svg>
